icons/communication/comment-x-24.svg

<svg width="24" height="24" viewBox="0 0 24 24" fill="none" xmlns="http://www.w3.org/2000/svg">
<path fill-rule="evenodd" clip-rule="evenodd" d="M1 3.75C1 2.7835 1.7835 2 2.75 2H21.25C22.2165 2 23 2.7835 23 3.75V16.25C23 17.2165 22.2165 18 21.25 18H11.1406C11.0778 18 11.0173 18.0236 10.9712 18.0662L7.09724 21.6374C6.29633 22.3757 5 21.8076 5 20.7183V18H2.75C1.7835 18 1 17.2165 1 16.25V3.75ZM2.75 3.5C2.61193 3.5 2.5 3.61193 2.5 3.75V16.25C2.5 16.3881 2.61193 16.5 2.75 16.5H5.5C6.05228 16.5 6.5 16.9477 6.5 17.5V20.1478L9.95446 16.9633C10.2776 16.6654 10.7011 16.5 11.1406 16.5H21.25C21.3881 16.5 21.5 16.3881 21.5 16.25V3.75C21.5 3.61193 21.3881 3.5 21.25 3.5H2.75Z" fill="black"/>
<path d="M8.71967 6.71967C9.01256 6.42678 9.48744 6.42678 9.78033 6.71967L12 8.93934L14.2197 6.71967C14.5126 6.42678 14.9874 6.42678 15.2803 6.71967C15.5732 7.01256 15.5732 7.48744 15.2803 7.78033L13.0607 10L15.2803 12.2197C15.5732 12.5126 15.5732 12.9874 15.2803 13.2803C14.9874 13.5732 14.5126 13.5732 14.2197 13.2803L12 11.0607L9.78033 13.2803C9.48744 13.5732 9.01256 13.5732 8.71967 13.2803C8.42678 12.9874 8.42678 12.5126 8.71967 12.2197L10.9393 10L8.71967 7.78033C8.42678 7.48744 8.42678 7.01256 8.71967 6.71967Z" fill="black"/>
</svg>

<svg xmlns="http://www.w3.org/2000/svg" width="24" height="24"><path fill-rule="evenodd" d="M1 3.75C1 2.784 1.784 2 2.75 2h18.5c.966 0 1.75.784 1.75 1.75v12.5A1.75 1.75 0 0121.25 18H11.14a.25.25 0 00-.169.066l-3.874 3.571c-.8.739-2.097.17-2.097-.919V18H2.75A1.75 1.75 0 011 16.25V3.75zm1.75-.25a.25.25 0 00-.25.25v12.5c0 .138.112.25.25.25H5.5a1 1 0 011 1v2.648l3.454-3.185a1.75 1.75 0 011.187-.463H21.25a.25.25 0 00.25-.25V3.75a.25.25 0 00-.25-.25H2.75z"/><path d="M8.72 6.72a.75.75 0 011.06 0L12 8.94l2.22-2.22a.75.75 0 111.06 1.06L13.06 10l2.22 2.22a.75.75 0 11-1.06 1.06L12 11.06l-2.22 2.22a.75.75 0 01-1.06-1.06L10.94 10 8.72 7.78a.75.75 0 010-1.06z"/></svg>
